X: 160
T: Ne'imat HaShikorim
C: Yoni Ro'eh 1999
O: Israel
F: http://www.youtube.com/watch?v=iD9zxfwILd0
F: http://www.youtube.com/watch?v=KfEhiIxarRc
M: 2/4
L: 1/8
Q: 1/4=120
K: Em
%%MIDI program 41
|:D E2 E|E2 E2|EG FG|F2 E2:|
|:zE FG|GA2z|A2 A2|ABGF|G2 E2|DG FG|F2 GF|E4:|



